svg/bi.svg

<?xml version="1.0" encoding="UTF-8"?>
<svg width="800" height="480" viewBox="-125 -75 250 150" xmlns="http://www.w3.org/2000/svg" xmlns:xlink="http://www.w3.org/1999/xlink">
  <defs>
    <g id="star">
      <g id="t">
        <g id="c">
          <path id="h" transform="rotate(30 0,-10)" d="m0-10v10h10"/>
          <use transform="scale(-1,1)" xlink:href="#h"/>
        </g>
        <use transform="rotate(120)" xlink:href="#c"/>
        <use transform="rotate(240)" xlink:href="#c"/>
      </g>
      <use transform="rotate(180)" xlink:href="#t"/>
    </g>
  </defs>
  <path d="m-125-75h250l-250 150h250z" fill="#ce1126"/>
  <path d="m-125-75v150l250-150v150z" fill="#1eb53a"/>
  <path d="m-125-75 250 150m0-150-250 150" stroke="#fff" stroke-width="20"/>
  <circle r="42.5" fill="#fff"/>
  <use id="green" y="-22" fill="#1eb53a" xlink:href="#star"/>
  <use transform="rotate(120)" xlink:href="#green"/>
  <use transform="rotate(240)" xlink:href="#green"/>
  <use id="red" transform="translate(0,-22) scale(.82)" fill="#ce1126" xlink:href="#star"/>
  <use transform="rotate(120)" xlink:href="#red"/>
  <use transform="rotate(240)" xlink:href="#red"/>
</svg>

<?xml version="1.0" encoding="UTF-8"?>
<svg xmlns="http://www.w3.org/2000/svg" xmlns:xlink="http://www.w3.org/1999/xlink" width="800" height="480" viewBox="-125,-75 250,150">
	<defs>
		<g id="star">
			<g id="t">
				<g id="c">
					<path id="h" d="M 0,-10 V 0 H 10" transform="rotate(30 0,-10)"/>
					<use xlink:href="#h" transform="scale(-1,1)"/>
				</g>
				<use xlink:href="#c" transform="rotate(120)"/>
				<use xlink:href="#c" transform="rotate(240)"/>
			</g>
			<use xlink:href="#t" transform="rotate(180)"/>
		</g>
	</defs>
	<path d="M -125,-75 H 125 L -125,75 H 125 z" fill="#ce1126"/>
	<path d="M -125,-75 V 75 L 125,-75 V 75 z" fill="#1eb53a"/>
	<path d="M -125,-75 L 125,75 M 125,-75 L -125,75" stroke="#fff" stroke-width="20"/>
	<circle r="42.5" fill="#fff"/>
	<use id="green" xlink:href="#star" y="-22" fill="#1eb53a"/>
	<use xlink:href="#green" transform="rotate(120)"/>
	<use xlink:href="#green" transform="rotate(240)"/>
	<use id="red" xlink:href="#star" transform="translate(0,-22) scale(.82)" fill="#ce1126"/>
	<use xlink:href="#red" transform="rotate(120)"/>
	<use xlink:href="#red" transform="rotate(240)"/>
</svg>
